X: 1
T:THE EARL OF MANSFIELD
M:C|
L:1/8
Q:80
C:Piper John Mc Ewan
S:March
K:HP
|: {g}f/2e/2|
{Gdc}d3/2e/2{Gdc}d{e}A|
{Gdc}d3/4e/4{g}f3/4g/4{ag}ag/2f/2|  !
{g}e3/2f/2{gef}e{g}A|
{g}c3/4d/4{g}e3/4f/4{gf}gf/2e/2|
{Gdc}d3/2e/2{Gdc}d{e}A|  !
{Gdc}d3/4e/4{g}f3/4g/4{ag}ag/2f/2|
{gf}ge{gcd}c{e}A|
{Gdc}d2{gdc}d:| |:  !
a/2g/2|
{a}f3/2g/2{afg}f{g}A|
{Gdc}d3/4e/4{g}f3/4g/4{ag}ag/2f/2|  !
{g}e3/2f/2{gef}e{g}A|
{g}c3/4d/4{g}e3/4f/4{gf}gf/2e/2|
{g}f3/2g/2{afg}f{g}A|  !
{Gdc}d3/4e/4{g}f3/4g/4{ag}ag/2f/2|
{gf}ge{gcd}c{e}A|
{Gdc}d2{gdc}d:| |:  !
a/2g/2|
{afg}fd{gdc}da/2g/2|
{afg}fd{gdc}d{g}e/2f/2|  !
{gf}gA{gcd}ce|
{gcd}c{e}A{GAG}A|1 a/2g/2|1
{afg}fd{gdc}da/2g/2|  !
{afg}fd{gdc}d{g}e/2f/2|
{gf}ge{gcd}c{e}A|
{Gdc}d2{gdc}d:|2  !
{g}B/2c/2|
{Gdc}d3/2e/2{Gdc}d{e}A|
{Gdc}d3/4e/4{g}f3/4g/4{ag}ag/2f/2|  !
{gf}ge{gcd}c{e}A|
{Gdc}d2{gdc}d:|
